X:47
T:Crib of Perches (reel), The 
B:CRE2.180 (Chruib PÃÂÃÂÃÂÃÂ©irsÃÂÃÂÃÂÃÂ­)
F:file ID: cre.2/047crib_p
N:I think Part B sounds better with C sharp instead of C
natural. I've kept the CRE original setting but added a
version of the second part with the C sharped. 
R:reel % A-B-A
M:C
Q:180
K:D
A3B AGED|(3EFG AB =cBcA|(3GAG E=C GCEG|=cAGc AG (3EFG|
A3B AGED|(3EFG AB =c2Ac|(3ded de d=cAB|1 =cAGE EDFG:|\
[2 =cAGE EDD2||
|:df (3fef af (3fef|dfgf ed=cA|(3B=cd ef gece|ge=cA GABc|
df (3fef af (3fef|dfgf ed=cA|(3B=cd ec d2cB|1 AFGE FDD2:|\
[2 AFGE FD (3EFG||

%%%

